X: 1
I: linebreak $
C: John Playford, The Dancing Master, 1670
T: Black Nag
T: longways for three couples
P: AA BB x 3
K: A minor
M: 6/4
L: 1/8
E2 |: 
P: A
"Am"A3BA2 "Em"B3AB2 | "Am"c3Bc2 "G"B2c2d2 | "Am"e3dc2 "G"B3AB2 | "Am"A6- A4E2 :: 
P: B
"Em"B2G2E2 B2G2E2 | "Em"B2G2E2 B2G2E2 | 
"Am"e2c2A2 e2c2A2 | "Am"e2c2A2 e2c2A2 | "Em"B2G2E2 B2G2E2 | "Em"B2G2E2 B2c2d2 | "Am"e3dc2 "E"B3cB2 |  [1 "Am"A6- A4A2 :|] 
 [2 "Am"A12 |] 

